usr/share/icons/biglinux-icons-material/scalable/apps/freeoffice-presentations.svg

<svg width="24" height="24" viewBox="0 0 24 24" fill="none" xmlns="http://www.w3.org/2000/svg">
<path fill-rule="evenodd" clip-rule="evenodd" d="M21 4.1113C20.2428 3.15905 19.2518 2.43079 18.0269 1.9265C16.8085 1.46308 15.5484 1.18066 14.2467 1.07924C13.501 1.02641 12.7551 1 12.0093 1C11.3195 1 10.6296 1.0226 9.93969 1.06779C9.83043 1.0996 9.71588 1.11486 9.59604 1.11359C8.8536 1.17326 8.12049 1.29157 7.39669 1.46852C4.2905 2.20701 2.33171 4.11908 1.52031 7.20471C1.14 8.77709 0.968176 10.3724 1.00483 11.9906C0.974199 13.5124 1.12311 15.0161 1.45158 16.5017C1.90753 18.4457 2.80376 19.9452 4.14026 21H17.7702C19.554 21 21 19.6228 21 17.924V4.1113Z" fill="#F68855"/>
<path opacity="0.625" fill-rule="evenodd" clip-rule="evenodd" d="M18.3125 21.9379C18.1454 22.0122 17.9739 22.0817 17.7978 22.1463C16.2531 22.6682 14.6647 22.943 13.0325 22.9706C11.1966 23.0661 9.37913 22.9287 7.57997 22.5585C6.16376 22.243 4.97959 21.6932 4.02747 20.9091C4.00925 20.7742 4.00021 20.638 4.00053 20.5013V6.99964C4.00053 5.33851 5.33709 4.00053 6.99964 4.00053H20.5013C20.6489 4.00053 20.7938 4.01108 20.9356 4.03148C21.4608 4.67215 21.8773 5.41694 22.185 6.26586C22.6119 7.50549 22.8639 8.78021 22.9411 10.09C23.0478 11.7347 23.0096 13.3758 22.8265 15.0133C22.6906 16.1544 22.3967 17.2521 21.9447 18.3064L18.3125 21.9379Z" fill="#E5E5E5"/>
<path fill-rule="evenodd" clip-rule="evenodd" d="M22.6674 16C22.5039 16.8002 22.2591 17.5781 21.933 18.3336C21.0824 20.1761 19.704 21.447 17.7978 22.1463C17.205 22.3466 16.6057 22.5105 16 22.638L16 20.8879C16 18.1806 18.1783 16 20.8879 16L22.6674 16Z" fill="white"/>
<path d="M6.99965 5.12449C6.75324 5.12393 6.50915 5.17205 6.28139 5.26609C6.05363 5.36012 5.8467 5.49822 5.67246 5.67246C5.49822 5.8467 5.36012 6.05363 5.26609 6.28139C5.17205 6.50915 5.12393 6.75324 5.12449 6.99965V20.4999C5.12449 21.5388 5.96073 22.3751 6.99965 22.3751H17V21.9995H6.99965C6.80262 21.9998 6.60745 21.9613 6.42535 21.8861C6.24325 21.8109 6.07779 21.7004 5.93847 21.5611C5.79914 21.4218 5.6887 21.2563 5.61347 21.0742C5.53825 20.8921 5.49972 20.6969 5.50009 20.4999V6.99965C5.50009 6.16908 6.16908 5.50009 6.99965 5.50009H20.4999C21.3305 5.50009 21.9995 6.16908 21.9995 6.99965V16.751H22.3751V6.99965C22.3756 6.75324 22.3275 6.50915 22.2335 6.28139C22.1394 6.05363 22.0013 5.8467 21.8271 5.67246C21.6529 5.49822 21.4459 5.36012 21.2182 5.26609C20.9904 5.17205 20.7463 5.12393 20.4999 5.12449H6.99965Z" fill="white"/>
<path d="M15.824 8.04004V9.43891C15.2798 9.17874 14.7664 8.98453 14.2836 8.85628C13.8008 8.72802 13.3345 8.6639 12.8847 8.6639C12.1033 8.6639 11.4996 8.81597 11.0736 9.12011C10.6522 9.42242 10.4415 9.85299 10.4415 10.4118C10.4415 10.8808 10.5812 11.2358 10.8606 11.4768C11.1446 11.714 11.6796 11.906 12.4656 12.0525L13.3313 12.2298C14.4013 12.4332 15.1896 12.7927 15.6962 13.3085C16.2074 13.8206 16.463 14.5072 16.463 15.3683C16.463 16.3953 16.1176 17.174 15.4269 17.7044C14.7398 18.2348 13.7312 18.5 12.401 18.5C11.8999 18.5 11.3649 18.4432 10.796 18.3296C10.2335 18.216 9.64905 18.0479 9.0426 17.8253V16.3481C9.62523 16.6751 10.1955 16.9216 10.7534 17.0874C11.3113 17.2532 11.861 17.3356 12.4024 17.3347C13.2204 17.3347 13.8525 17.1744 14.2987 16.8538C14.743 16.5313 14.9651 16.0719 14.9651 15.4755C14.9651 14.9543 14.8039 14.5466 14.4814 14.2525C14.1645 13.9594 13.6414 13.7395 12.9122 13.5929L12.0396 13.4225C10.9696 13.21 10.1955 12.8766 9.7173 12.4222C9.2391 11.9678 9 11.3357 9 10.5259C9 9.58869 9.32888 8.85032 9.98663 8.31074C10.6499 7.77025 11.5614 7.5 12.7212 7.5C13.2177 7.5 13.7243 7.54535 14.241 7.63604C14.7567 7.72582 15.2844 7.86048 15.824 8.04004Z" fill="white"/>
</svg>

<svg xmlns="http://www.w3.org/2000/svg" width="24" height="24" fill="none"><path fill="#F68855" fill-rule="evenodd" d="M21 4.111c-.757-.952-1.748-1.68-2.973-2.184a13.537 13.537 0 0 0-3.78-.848 31.653 31.653 0 0 0-4.307-.011c-.11.032-.224.047-.344.046-.742.06-1.476.178-2.2.355-3.106.738-5.064 2.65-5.876 5.736a18.491 18.491 0 0 0-.515 4.786c-.03 1.521.118 3.025.447 4.51.456 1.945 1.352 3.444 2.688 4.499h13.63c1.784 0 3.23-1.377 3.23-3.076V4.111Z" clip-rule="evenodd"/><path fill="#E5E5E5" fill-rule="evenodd" d="M18.313 21.938a8.312 8.312 0 0 1-.515.208 15.624 15.624 0 0 1-4.765.825 21.423 21.423 0 0 1-5.453-.413c-1.416-.315-2.6-.865-3.553-1.649a2.994 2.994 0 0 1-.026-.408V7C4 5.339 5.337 4 7 4H20.5c.148 0 .293.011.435.031.525.641.941 1.386 1.249 2.235.427 1.24.679 2.514.756 3.824a27.94 27.94 0 0 1-.114 4.923 11.88 11.88 0 0 1-.882 3.293l-3.633 3.632Z" clip-rule="evenodd" opacity=".625"/><path fill="#fff" fill-rule="evenodd" d="M22.667 16a11.87 11.87 0 0 1-.734 2.334c-.85 1.842-2.229 3.113-4.135 3.812-.593.2-1.192.364-1.798.492v-1.75A4.877 4.877 0 0 1 20.888 16h1.78Z" clip-rule="evenodd"/><path fill="#fff" d="M7 5.124A1.87 1.87 0 0 0 5.124 7v13.5c0 1.039.837 1.875 1.876 1.875h10V22H7a1.499 1.499 0 0 1-1.5-1.5V7c0-.83.67-1.5 1.5-1.5h13.5c.83 0 1.5.67 1.5 1.5v9.751h.375V7A1.873 1.873 0 0 0 20.5 5.124H7Z"/><path fill="#fff" d="M15.824 8.04v1.399a8.892 8.892 0 0 0-1.54-.583 5.442 5.442 0 0 0-1.4-.192c-.78 0-1.384.152-1.81.456-.422.302-.633.733-.633 1.292 0 .469.14.824.42 1.065.284.237.819.429 1.605.575l.865.178c1.07.203 1.859.563 2.365 1.079.511.512.767 1.198.767 2.06 0 1.026-.345 1.805-1.036 2.335-.687.53-1.696.796-3.026.796a8.216 8.216 0 0 1-1.605-.17 11.989 11.989 0 0 1-1.753-.505v-1.477a8.396 8.396 0 0 0 1.71.74 5.735 5.735 0 0 0 1.65.247c.817 0 1.45-.16 1.896-.481.444-.323.666-.782.666-1.378 0-.522-.161-.93-.484-1.224-.316-.293-.84-.513-1.569-.66l-.872-.17c-1.07-.212-1.845-.545-2.323-1C9.24 11.968 9 11.336 9 10.526c0-.937.329-1.676.987-2.215.663-.54 1.574-.811 2.734-.811.497 0 1.003.045 1.52.136.516.09 1.043.224 1.583.404Z"/></svg>
